packages/assets/static/images/icons/binoculars.svg

<svg width="24" height="24" viewBox="0 0 24 24" xmlns="http://www.w3.org/2000/svg">
<path d="M22.5937 14.1222C22.5937 14.1222 22.5937 14.1222 22.5937 14.1175C22.5262 13.9284 22.447 13.7436 22.3565 13.5644L18.4621 4.70312C18.4059 4.57552 18.3264 4.45949 18.2277 4.36094C17.9143 4.04742 17.5422 3.79872 17.1327 3.62904C16.7231 3.45936 16.2842 3.37203 15.8409 3.37203C15.3976 3.37203 14.9586 3.45936 14.5491 3.62904C14.1395 3.79872 13.7674 4.04742 13.454 4.36094C13.2435 4.57164 13.1252 4.85719 13.1249 5.155V7.12375H10.8749V5.155C10.8749 4.85686 10.7566 4.57093 10.5459 4.36C10.2325 4.04648 9.86036 3.79778 9.45081 3.62811C9.04126 3.45843 8.6023 3.37109 8.159 3.37109C7.7157 3.37109 7.27673 3.45843 6.86719 3.62811C6.45764 3.79778 6.08554 4.04648 5.77212 4.36C5.67347 4.45855 5.59399 4.57458 5.53775 4.70219L1.64337 13.5644C1.55285 13.7436 1.47363 13.9284 1.40619 14.1175C1.40619 14.1175 1.40619 14.1175 1.40619 14.1222C1.16835 14.7917 1.07973 15.5051 1.14654 16.2125C1.21334 16.9198 1.43396 17.604 1.79294 18.2172C2.15192 18.8303 2.64058 19.3576 3.22472 19.762C3.80886 20.1665 4.47435 20.4384 5.17459 20.5587C5.87484 20.679 6.59291 20.6448 7.27854 20.4584C7.96417 20.2721 8.60078 19.9381 9.14379 19.4799C9.68681 19.0217 10.1231 18.4504 10.4221 17.8058C10.7212 17.1613 10.8757 16.4593 10.8749 15.7487V9.37375H13.1249V15.7487C13.1242 16.4593 13.2787 17.1613 13.5777 17.8058C13.8768 18.4504 14.3131 19.0217 14.8561 19.4799C15.3991 19.9381 16.0357 20.2721 16.7213 20.4584C17.407 20.6448 18.125 20.679 18.8253 20.5587C19.5255 20.4384 20.191 20.1665 20.7752 19.762C21.3593 19.3576 21.848 18.8303 22.2069 18.2172C22.5659 17.604 22.7865 16.9198 22.8533 16.2125C22.9201 15.5051 22.8315 14.7917 22.5937 14.1222ZM7.49994 5.8375C7.66067 5.72082 7.84943 5.64878 8.04702 5.62869C8.24462 5.6086 8.44401 5.64118 8.62494 5.72312V11.6434C7.6275 11.0034 6.43075 10.7493 5.25931 10.9291L7.49994 5.8375ZM5.99994 18.3737C5.48076 18.3737 4.97324 18.2198 4.54156 17.9314C4.10989 17.6429 3.77343 17.2329 3.57475 16.7533C3.37607 16.2736 3.32409 15.7458 3.42538 15.2366C3.52666 14.7274 3.77667 14.2597 4.14378 13.8926C4.51089 13.5255 4.97862 13.2755 5.48782 13.1742C5.99702 13.0729 6.52482 13.1249 7.00448 13.3236C7.48414 13.5222 7.89411 13.8587 8.18254 14.2904C8.47098 14.7221 8.62494 15.2296 8.62494 15.7487C8.62494 16.4449 8.34837 17.1126 7.85609 17.6049C7.36381 18.0972 6.69613 18.3737 5.99994 18.3737ZM15.3749 5.72312C15.556 5.64175 15.7553 5.60949 15.9528 5.62956C16.1502 5.64964 16.339 5.72136 16.4999 5.8375L18.7377 10.9291C17.5663 10.7493 16.3696 11.0034 15.3721 11.6434L15.3749 5.72312ZM17.9999 18.3737C17.4808 18.3737 16.9732 18.2198 16.5416 17.9314C16.1099 17.6429 15.7734 17.2329 15.5748 16.7533C15.3761 16.2736 15.3241 15.7458 15.4254 15.2366C15.5267 14.7274 15.7767 14.2597 16.1438 13.8926C16.5109 13.5255 16.9786 13.2755 17.4878 13.1742C17.997 13.0729 18.5248 13.1249 19.0045 13.3236C19.4841 13.5222 19.8941 13.8587 20.1825 14.2904C20.471 14.7221 20.6249 15.2296 20.6249 15.7487C20.6249 16.4449 20.3484 17.1126 19.8561 17.6049C19.3638 18.0972 18.6961 18.3737 17.9999 18.3737Z"/>
</svg>

<svg viewBox="0 0 24 24" xmlns="http://www.w3.org/2000/svg" aria-hidden="true" fill="currentColor" height="24px" width="24px"><path d="M22.594 14.122v-.005a5 5 0 0 0-.238-.553l-3.894-8.86a1.1 1.1 0 0 0-.234-.343 3.375 3.375 0 0 0-4.774 0c-.21.21-.329.496-.33.794v1.969h-2.25V5.155c0-.298-.117-.584-.328-.795a3.375 3.375 0 0 0-4.774 0 1.1 1.1 0 0 0-.234.342l-3.895 8.862q-.136.27-.237.553v.005a4.875 4.875 0 1 0 9.469 1.627V9.374h2.25v6.375a4.876 4.876 0 0 0 9.082 2.468 4.88 4.88 0 0 0 .387-4.095M7.5 5.838a1.13 1.13 0 0 1 1.125-.115v5.92a4.87 4.87 0 0 0-3.366-.714zM6 18.374a2.625 2.625 0 1 1 0-5.25 2.625 2.625 0 0 1 0 5.25m9.375-12.65a1.13 1.13 0 0 1 1.125.114l2.238 5.091a4.87 4.87 0 0 0-3.366.714zM18 18.373a2.625 2.625 0 1 1 0-5.25 2.625 2.625 0 0 1 0 5.25"/></svg>
